bundles/org.openhab.ui.habpanel/web/assets/icons/freepik-housethings/oven.svg

<svg xmlns="http://www.w3.org/2000/svg" width="91.292" height="91.292" style="enable-background:new 0 0 91.292 91.292" xml:space="preserve"><path d="M11.521 86.042h12.25v5.25h-12.25v-5.25zm54.25 5.25h12.25v-5.25h-12.25v5.25zm17.5-19.25H8.021a3.498 3.498 0 0 0-3.5 3.5v3.5c0 1.935 1.566 3.5 3.5 3.5h75.25c1.934 0 3.5-1.565 3.5-3.5v-3.5a3.5 3.5 0 0 0-3.5-3.5zm3.5-52.5v45.5c0 1.935-1.566 3.5-3.5 3.5H8.021a3.498 3.498 0 0 1-3.5-3.5v-45.5C4.521 17.608 17.646 0 45.939 0c28.289 0 40.832 17.608 40.832 19.542zm-45.5 10.5c0-1.934-1.566-3.5-3.5-3.5h-22.75a3.499 3.499 0 0 0-3.5 3.5v22.75c0 1.935 1.566 3.5 3.5 3.5h22.75c1.934 0 3.5-1.565 3.5-3.5v-22.75zm4.666-15.167c8.536 0 15.457-2.252 15.457-5.031s-6.921-5.031-15.457-5.031c-8.537 0-15.458 2.252-15.458 5.031 0 2.78 6.921 5.031 15.458 5.031zm33.834 15.167c0-1.934-1.566-3.5-3.5-3.5h-22.75a3.499 3.499 0 0 0-3.5 3.5v22.75c0 1.935 1.566 3.5 3.5 3.5h22.75c1.934 0 3.5-1.565 3.5-3.5v-22.75zm-25.396-.862c-.6.564 3.754 6.157 9.725 12.491 5.969 6.336 11.293 11.013 11.895 10.448.6-.564-3.755-6.159-9.724-12.493-5.973-6.334-11.298-11.012-11.896-10.446zm-38.5-.002c-.599.564 3.754 6.157 9.723 12.493 5.969 6.333 11.293 11.011 11.893 10.448.6-.564-3.753-6.159-9.722-12.493-5.971-6.335-11.294-11.013-11.894-10.448z"/></svg>

<?xml version="1.0" encoding="iso-8859-1"?>
<!-- Generator: Adobe Illustrator 16.0.0, SVG Export Plug-In . SVG Version: 6.00 Build 0)  -->
<!DOCTYPE svg PUBLIC "-//W3C//DTD SVG 1.1//EN" "http://www.w3.org/Graphics/SVG/1.1/DTD/svg11.dtd">
<svg version="1.1" id="Capa_1" xmlns="http://www.w3.org/2000/svg" xmlns:xlink="http://www.w3.org/1999/xlink" x="0px" y="0px"
	 width="91.292px" height="91.292px" viewBox="0 0 91.292 91.292" style="enable-background:new 0 0 91.292 91.292;"
	 xml:space="preserve">
<g>
	<path d="M11.521,86.042h12.25v5.25h-12.25V86.042z M65.771,91.292h12.25v-5.25h-12.25V91.292z M83.271,72.042H8.021
		c-1.934,0-3.5,1.565-3.5,3.5v3.5c0,1.935,1.566,3.5,3.5,3.5h75.25c1.934,0,3.5-1.565,3.5-3.5v-3.5
		C86.771,73.609,85.205,72.042,83.271,72.042z M86.771,19.542v45.5c0,1.935-1.566,3.5-3.5,3.5H8.021c-1.934,0-3.5-1.565-3.5-3.5
		v-45.5C4.521,17.608,17.646,0,45.939,0C74.228,0,86.771,17.608,86.771,19.542z M41.271,30.042c0-1.934-1.566-3.5-3.5-3.5h-22.75
		c-1.934,0-3.5,1.566-3.5,3.5v22.75c0,1.935,1.566,3.5,3.5,3.5h22.75c1.934,0,3.5-1.565,3.5-3.5V30.042z M45.937,14.875
		c8.536,0,15.457-2.252,15.457-5.031c0-2.779-6.921-5.031-15.457-5.031c-8.537,0-15.458,2.252-15.458,5.031
		C30.479,12.624,37.4,14.875,45.937,14.875z M79.771,30.042c0-1.934-1.566-3.5-3.5-3.5h-22.75c-1.934,0-3.5,1.566-3.5,3.5v22.75
		c0,1.935,1.566,3.5,3.5,3.5h22.75c1.934,0,3.5-1.565,3.5-3.5V30.042z M54.375,29.18c-0.6,0.564,3.754,6.157,9.725,12.491
		c5.969,6.336,11.293,11.013,11.895,10.448c0.6-0.564-3.755-6.159-9.724-12.493C60.298,33.292,54.973,28.614,54.375,29.18z
		 M15.875,29.178c-0.599,0.564,3.754,6.157,9.723,12.493c5.969,6.333,11.293,11.011,11.893,10.448
		c0.6-0.564-3.753-6.159-9.722-12.493C21.798,33.291,16.475,28.613,15.875,29.178z"/>
</g>
<g>
</g>
<g>
</g>
<g>
</g>
<g>
</g>
<g>
</g>
<g>
</g>
<g>
</g>
<g>
</g>
<g>
</g>
<g>
</g>
<g>
</g>
<g>
</g>
<g>
</g>
<g>
</g>
<g>
</g>
</svg>
